icons/communication/call-heart-24.svg

<svg width="25" height="24" viewBox="0 0 25 24" fill="none" xmlns="http://www.w3.org/2000/svg">
<path fill-rule="evenodd" clip-rule="evenodd" d="M8.18911 2.87559C7.02338 1.70986 5.13364 1.70986 3.96791 2.87559L3.23924 3.60426C2.22535 4.61815 1.81603 6.06813 2.08268 7.48138C2.66656 10.5698 4.44665 13.8988 7.27485 16.727C10.1031 19.5552 13.4324 21.3354 16.5208 21.9192C17.9341 22.1859 19.3838 21.7765 20.3977 20.7626L21.1252 20.0351C22.2909 18.8693 22.2909 16.9796 21.1252 15.8139L19.8143 14.5029C18.8667 13.5554 17.3298 13.5547 16.3828 14.5034L15.3739 15.5134C15.3566 15.5307 15.3358 15.5409 15.3172 15.5448C15.3 15.5483 15.2893 15.5457 15.2831 15.543C13.8846 14.9253 12.4972 13.9919 11.2535 12.7483C10.0101 11.5049 9.07781 10.1175 8.46117 8.719C8.45846 8.71286 8.45571 8.70216 8.45932 8.6847C8.46315 8.66618 8.47362 8.64521 8.49086 8.62788L9.40616 7.7137C10.4217 6.6982 10.4755 5.162 9.50116 4.18764L8.18911 2.87559ZM7.12845 3.93625C6.54851 3.35631 5.60851 3.35631 5.02857 3.93625L4.2999 4.66492C3.6576 5.30722 3.37629 6.2468 3.55657 7.20274C4.07692 9.95477 5.68986 13.0207 8.33551 15.6664C10.9813 18.3121 14.0471 19.925 16.7992 20.4453C17.7551 20.6256 18.6947 20.3443 19.337 19.702L20.0646 18.9744C20.6445 18.3945 20.6445 17.4545 20.0646 16.8745L18.7536 15.5636C18.3914 15.2013 17.8049 15.202 17.4443 15.5632L16.435 16.5736C15.99 17.0186 15.2954 17.188 14.6773 16.9153C13.1054 16.2209 11.5644 15.1805 10.1929 13.809C8.82121 12.4373 7.78193 10.8964 7.08876 9.32439C6.81616 8.70641 6.98561 8.01182 7.43052 7.56691L8.3455 6.65303C8.8298 6.16873 8.77594 5.58374 8.4405 5.2483L7.12845 3.93625Z" fill="black"/>
<path fill-rule="evenodd" clip-rule="evenodd" d="M15.9516 2.46323C15.2149 2.46344 14.4334 3.1513 14.4331 4.12402C14.4328 5.29556 15.2944 6.39444 16.2784 7.25041C16.8142 7.71266 17.3905 8.12344 18.0002 8.47755C18.1027 8.41797 18.2392 8.33637 18.3993 8.23399C18.8627 7.93853 19.3055 7.60901 19.7228 7.24895C20.7067 6.3938 21.5692 5.29398 21.5696 4.12243C21.5698 3.14932 20.7883 2.46189 20.0519 2.46209C19.5337 2.46224 19.1025 2.69362 18.7863 3.09154C18.3857 3.59576 17.6171 3.59571 17.2169 3.09184C16.9012 2.6943 16.47 2.46309 15.9516 2.46323ZM13.0013 4.12442C13.0018 2.34421 14.4245 1.00157 15.952 1.00114C16.761 1.00092 17.4638 1.31026 18.002 1.81485C18.5405 1.31003 19.2433 1.00023 20.0523 1C21.5795 0.999575 23.0018 2.34142 23.0013 4.12203C23.0008 5.98701 21.6815 7.46622 20.6494 8.36302L20.6476 8.3646C20.1777 8.77018 19.6798 9.14078 19.1579 9.47355C18.9552 9.60316 18.7857 9.70346 18.6662 9.77228L18.6653 9.7728C18.5995 9.81061 18.5337 9.84697 18.4693 9.88179C18.4552 9.8894 18.4409 9.89651 18.4265 9.90312C18.293 9.96682 18.1474 9.99996 17.9998 10C17.8394 10 17.6814 9.96102 17.5388 9.88618L17.5351 9.88423C17.4676 9.84825 17.4005 9.81118 17.3341 9.77303C16.6322 9.36882 15.9683 8.89762 15.3528 8.36645L15.3507 8.36466C14.319 7.46744 13.0008 5.98935 13.0013 4.12442Z" fill="black"/>
</svg>

<svg xmlns="http://www.w3.org/2000/svg" width="25" height="24"><path fill-rule="evenodd" d="M8.19 2.876a2.985 2.985 0 00-4.222 0l-.729.728C2.225 4.618 1.816 6.068 2.083 7.481c.584 3.089 2.364 6.418 5.192 9.246 2.828 2.828 6.157 4.608 9.246 5.192 1.413.267 2.863-.143 3.877-1.156l.727-.728a2.985 2.985 0 000-4.221l-1.31-1.311a2.426 2.426 0 00-3.432 0l-1.01 1.01a.115.115 0 01-.056.032.056.056 0 01-.034-.002c-1.398-.618-2.786-1.551-4.03-2.795-1.243-1.243-2.175-2.63-2.792-4.029a.055.055 0 01-.002-.034.116.116 0 01.032-.057l.915-.914c1.016-1.016 1.07-2.552.095-3.526L8.19 2.876zm-1.062 1.06c-.58-.58-1.52-.58-2.1 0l-.728.729c-.642.642-.924 1.582-.743 2.538.52 2.752 2.133 5.818 4.779 8.463 2.645 2.646 5.711 4.259 8.463 4.78.956.18 1.896-.102 2.538-.744l.728-.728c.58-.58.58-1.52 0-2.1l-1.311-1.31a.925.925 0 00-1.31 0l-1.009 1.01a1.587 1.587 0 01-1.758.341c-1.572-.694-3.113-1.734-4.484-3.106-1.372-1.372-2.411-2.913-3.104-4.485a1.587 1.587 0 01.342-1.757l.914-.914c.485-.484.43-1.07.095-1.405L7.128 3.936zm8.824-1.473c-.737 0-1.519.688-1.519 1.661 0 1.172.861 2.27 1.845 3.126.536.463 1.113.873 1.722 1.228a11.45 11.45 0 001.723-1.229c.984-.855 1.846-1.955 1.847-3.127 0-.973-.782-1.66-1.518-1.66-.518 0-.95.232-1.266.63-.4.504-1.169.504-1.57 0-.315-.398-.746-.629-1.264-.629zm-2.95 1.661c0-1.78 1.422-3.122 2.95-3.123.809 0 1.512.31 2.05.814A2.958 2.958 0 0120.052 1c1.527 0 2.95 1.341 2.95 3.122-.001 1.865-1.32 3.344-2.353 4.241l-.001.002a12.869 12.869 0 01-1.982 1.407 8.674 8.674 0 01-.24.131.991.991 0 01-.887-.017l-.004-.002a12.846 12.846 0 01-2.182-1.518l-.002-.001C14.319 7.467 13 5.989 13 4.125z"/></svg>
